X: 116
T: A Breton In Paris
R: reel
M: 4/4
K: Gmajor
|:ed|gede c2 A2|ed gede AB|cz BAGA Bd|
B GB A2 ed|gede c2 Az|gede ABcA|dz BAGA Bd|
B2 GB A2ed|gede c2 Az|ed gede AB|cz BAGA Bd|
B2 GB A2ed|gede c2 Az|gede ABcA|dz BAGA Bd|
B2 GB dege||az c'bbaga|eg az c'bba|gac'd' a2 de|
ge dB dege|az c'bbaga|eg az c'bba|gA'eg a2 de|
ge dB dege|az c'bbaga|eg az c'bba|gA'eg a2 de|
ge dB dege|az c'bbaga|eg az c'bba|gA'eg a2 de|ge dB A2:|

